img/favicon.svg

<svg xmlns="http://www.w3.org/2000/svg" width="256" height="256" viewBox="0 0 100 100">
  <rect width="100" height="100" fill="#fff" rx="20"/>
  <path d="M60.41 61.56V21.17h7.54v40.28q0 8.16-4.9 12.77-4.91 4.61-13.07 4.61-8.48 0-13.2-4.34-4.73-4.33-4.73-12.15h7.5q0 4.89 2.68 7.62 2.67 2.74 7.75 2.74 4.65 0 7.52-2.93 2.87-2.93 2.91-8.21Z"/>
</svg>

<svg xmlns="http://www.w3.org/2000/svg" width="256" height="256" viewBox="0 0 100 100"><rect width="100" height="100" rx="20" fill="#ffffff"></rect><path fill="#000000" d="M60.41 61.56L60.41 21.17L67.95 21.17L67.95 61.45Q67.95 69.61 63.05 74.22Q58.14 78.83 49.98 78.83L49.98 78.83Q41.50 78.83 36.78 74.49Q32.05 70.16 32.05 62.34L32.05 62.34L39.55 62.34Q39.55 67.23 42.23 69.96Q44.90 72.70 49.98 72.70L49.98 72.70Q54.63 72.70 57.50 69.77Q60.37 66.84 60.41 61.56L60.41 61.56Z"></path></svg>
